!!!COM: Scriabin, Alexander
!!!OTL: Feuillet d'album
!!!OPS: 58
!!!ODT: 1911
!!!AGN: Miniature
**kern	**kern
*staff2	*staff1
*clefF4	*clefG2
*k[]	*k[]
*M3/4	*M3/4
=1	=1
.	16qqe/LL
.	16qqg#X/
.	16qqdd#X/JJ
8r	2ff#X
8Cn	.
8A#XL	.
8e	.
*clefG2	*
8dd#X	[4ff#
8g#XJ	.
=2	=2
*clefF4	*
16qqC/LL	.
16qqA#X/	.
16qqe/JJ	.
4g#X	8ff#L]
.	8eeJ
4r	8dd#X
.	4g#X
[4A#X	.
.	[8g#
=3	=3
*	*^
.	.	8qB#X\
8A#L]	8g#L]	8e
8E	8f##XJ	8rc
.	8qe/	.
8FF#X	12g#XL	4rc
.	12.b#X	.
8E	.	.
.	24dd#XJk	.
.	16qqg#/LL	.
.	16qqb#/	.
.	16qqdd#/JJ	.
8A#X	[4ee	4rc
8g#XJ	.	.
*	*v	*v
=4	=4
8d#XL	4.ee]
8c##X	.
8d#	.
8c##J	[8ee
12d#L	8eeL]
12c##	.
.	8ffnJ
12c#XJ	.
=5	=5
.	16qqg-X/LL
.	16qqb-X/
.	16qqff/JJ
8cnL	2aa-X
8E--	.
8c	.
*clefG2	*
8g-X	.
8ff	[4aa-
8b-XJ	.
=6	=6
16qqE--/LL	.
16qqc/	.
16qqg-X/JJ	.
4b-X	8aa-L]
.	8gg-XJ
4r	8ff
.	4b-X
*clefF4	*
[4c	.
.	8b-
=7	=7
*	*^
.	.	8qd\
8cL]	8b-XL	8g-X
8G-X	8anJ	8rc
.	8qg-/	.
8AA-X	12b-L	4rc
.	12.dd	.
8G-	.	.
.	24ffJk	.
.	16qqb-/LL	.
.	16qqdd/	.
.	16qqff/JJ	.
8c	[4gg-X	4rc
8b-XJ	.	.
*	*v	*v
=8	=8
8fL	4.gg-]
8e	.
8f	.
8eJ	[8gg-X
12fL	4gg-]
12e	.
12e-XJ	.
=9	=9
*	*^
8dL	[2.ff#X	4rc
8En	.	.
8d	.	4b#X
8g#XJ	.	.
[4B-X	.	4cc#X
=10	=10	=10
.	.	16qqf#X\LL
.	.	16qqb-X\
.	.	16qqcc#X\JJ
8B-L]	4ff#]	4.dd
8Cn	.	.
8B-X	4.aa	.
8eJ	.	4dd
8a	.	.
8r	8ff#X	8cc#
=11	=11	=11
.	16qqdd/LL	.
.	16qqff#X/	.
.	16qqaa/JJ	[8.qdd\
8r	[2.bb-X	2.dd_
8FFn	.	.
8CL	.	.
8B-X	.	.
8e	.	.
*clefG2	*	*
8ddJ	.	.
=12	=12	=12
8aL	2bb-]	2dd]
8g#X	.	.
8a	.	.
8g#J	.	.
*clefF4	*	*
4C 4B-X 4e	12aaL	12ddL
.	12r	12e
.	24r	24r
.	24ff#XJk	24cc#XJk
=13	=13	=13
.	16qqdd/LL	.
.	16qqff#X/	.
.	16qqaa/JJ	[8.qdd\
8r	[2.bb-X	2.dd_
8FFn	.	.
8CL	.	.
8B-X	.	.
8e	.	.
*clefG2	*	*
8ddJ	.	.
=14	=14	=14
*	*	*^
8aL	4.bb-]	4.dd]	4r
8g#X	.	.	.
8a	.	.	4r
8g#J	8dd	8rc	.
*clefF4	*	*	*
[4Cn [4A#X	12cc#XL	6an	4e\
.	12dd	.	.
.	12dd#XJ	12g#X	.
*	*v	*v	*v
=15	=15
.	16qqe/LL
.	16qqg#X/
.	16qqdd#X/JJ
*	*^
2.C] 2.A#] 2.e	[2.ff#X	2.g# 2.dd#
*	*v	*v
=16	=16
8r	2ff#]
8C	.
8A#XL	.
8e	.
*clefG2	*
8dd#X	[4ff#X
8g#XJ	.
=17	=17
*clefF4	*
16qqFF#X/LL	.
16qqE/	.
16qqA#X/	.
16qqe/JJ	.
2g#X	8ff#L]
.	8eeJ
.	8dd#X
.	4g#X
[4A#X	.
.	[8g#
=18	=18
*	*^
.	.	8qB#X\
12A#L]	6g#]	8e
12E	.	.
.	.	8rc
12FF#XJ	12f##X	.
.	8qe/	.
12BBBnL	12g#XL	4rc
12FF#	12.b#X	.
12EJ	.	.
.	24dd#XJk	.
.	16qqg#/LL	.
.	16qqb#/	.
.	16qqdd#/JJ	.
12A#XL	[4ee	4rc
12g#X	.	.
[12d#XJ	.	.
=19	=19	=19
6d#]	2e 2g#X 2ee]	4rc
12c##X	.	.
6d#X	.	4rc
12c##	.	.
12d#L	[4g#	4e
12c##	.	.
12c#XJ	.	.
=20	=20	=20
.	.	8qB#X\
12A#XL	6g#]	8e
12E	.	.
.	.	8rc
12FF#XJ	12f##X	.
.	8qe/	.
12BBBnL	12g#XL	4rc
12FF#	12.b#X	.
12EJ	.	.
.	24dd#XJk	.
.	16qqg#/LL	.
.	16qqb#/	.
.	16qqdd#/JJ	.
12A#L	[4ee [4gg#X	4rc
12g#X	.	.
[12d#XJ	.	.
*	*v	*v
=21	=21
6d#]	2e 2g#X 2ee] 2gg#]
12c##X	.
6d#X	.
12c##	.
16qqFF#X/LL	.
16qqE/	.
16qqA#X/JJ	.
4d#	12g#L
.	12.b#X
.	24dd#XJk
=22	=22
16qqBBBn/LL	16qqg#X/LL
16qqFF#X/	16qqb#X/
16qqE/	16qqdd#X/
16qqA#X/JJ	16qqgg#X/JJ
6g#X	2ee 2bb#X
12f##X	.
6g#	.
12f##	.
[4g#	4r
=23	=23
8g#]	2.r
8r	.
4r	.
4r	.
==	==
*-	*-
!!!system-decoration: {(*)}
!!!ENC: Bryan Jacob Bell
!!!END: November 2021 to April 2022
!!!PED: Günter Philipp
!!!PTL: Ausgewählte Klavierwerke (Edition Peters)
